front/src/Assets/image/sidebar/Mail.svg

<svg width="19" height="15" viewBox="0 0 19 15" fill="none" xmlns="http://www.w3.org/2000/svg">
<path d="M16.09 14.21H3.5C2.4 14.21 1.5 13.31 1.5 12.21V2.5C1.5 1.95 1.95 1.5 2.5 1.5H17.09C17.64 1.5 18.09 1.95 18.09 2.5V12.21C18.09 13.31 17.19 14.21 16.09 14.21Z" stroke="#666666" stroke-width="1.2" stroke-miterlimit="10" stroke-linecap="round" stroke-linejoin="round"/>
<path d="M1.8501 2.13L9.2401 7.27C9.5701 7.5 10.0201 7.5 10.3501 7.27L17.7401 2.13" stroke="#666666" stroke-width="1.2" stroke-miterlimit="10" stroke-linecap="round" stroke-linejoin="round"/>
</svg>

<svg xmlns="http://www.w3.org/2000/svg" fill="none" viewBox="0 0 19 15">
  <path stroke="#666" stroke-linecap="round" stroke-linejoin="round" stroke-miterlimit="10" stroke-width="1.2" d="M16.09 14.21H3.5c-1.1 0-2-.9-2-2V2.5c0-.55.45-1 1-1h14.59c.55 0 1 .45 1 1v9.71c0 1.1-.9 2-2 2z"/>
  <path stroke="#666" stroke-linecap="round" stroke-linejoin="round" stroke-miterlimit="10" stroke-width="1.2" d="M1.85 2.13l7.39 5.14c.33.23.78.23 1.11 0l7.39-5.14"/>
</svg>
